X: 800
T: Waltom Abby
P: Longways for as many as will
%R: reel
B: "The Compleat Country Dancing-Master" printed by John Walsh, London ca. 1740
S: 6: CCDM1 http://imslp.org/wiki/The_Compleat_Country_Dancing-Master_(Various) V.1 p.88 #124 (176)
B: "The Dancing-Master: Containing Directions and Tunes for Dancing" printed by W. Pearson for John Walsh, London ca. 1709
S: 7: DMDfD http://digital.nls.uk/special-collections-of-printed-music/pageturner.cfm?id=89751228 p.233 "X 3"
Z: 2013 John Chambers <jc:trillian.mit.edu>
N: Many illegible words, deciphered using image at http://deriv.nls.uk/dcn3/8975/89754019.3.jpg
N: The two books have different beaming; this version combines them to get half-measure beaming when possible.
M: C|
L: 1/8
K: F
% - - - - - - - - - - - - - - - - - - - - - - - - -
[|\
f2g2 a2ga | bagf e2c2 | d2B2 G2c2 | A2F2 c4 |\
f2g2 a2ga | bagf e2c2 | d2B2 G2c2 | A2 F6 |]
[|\
G2E2 GEGE | c2G2 A2F2 | d2B2 dBdB | g2d2 e2c2 |\
a2gf g2fe | defg e2c2 | dcBA G2c2 | A2 F6 |]
% - - - - - - - - - - - - - - - - - - - - - - - - -
%%begintext align
%% The 1st Man cast off and his Partner follows him into the 2d
%% Cu. place, and then go Back to Back with his Partner, the 1st
%% Wo. being in the 2d Man's Place, cast up into her own Place,
%% her Partnew follows her into his own Place, and go Back to
%% Back the first :| The 1st Cu. cross over below the 2d Cu. and
%% go the Figure through .|  Then lead down through below, and
%% then lead up through, and cast off into the 2d Cu. Place :|
%% [CCDM1]
%%endtext
%%sep 1 1 500
% - - - - - - - - - - - - - - - - - - - - - - - - -
%%begintext align
%%   The 1. man cast off and his Partner follows him into the 2. cu. place, and then go back to back
%% with his Partner, The 1. woman being in the 2. man's place, cast up into her own place, her Partner
%% follows her into his own place and go back to back the first :|
%%endtext
%%sep 1 1 300
%%begintext align
%%    The 1. cu. cross over below the 2. cu. and go the Figure thorow :| Then lead down thorow below,
%% and then lead up thorow above, and cast off into the 2. cu. place :|
%% [DMDfD]
%%endtext
%%sep 1 8 500

%%sep 1 1 500
%%sep 1 1 500
